X: 341
M: C
L: 1/8
K: G
V: 1
d/c/ |\
g<b~d>B c<a~A>B | c>BAG FAA |]
V: 2 clef=bass middle=d
z |\
[g2G2][g2G2] [g2G2][g2G2] | [g2G2][g2G2] [d2D2][d2D2] |\
[g2G2][g2G2] [g2G2][g2G2] | [d2D2][d2D2] [g2G2][gG] :|
z |\
[g2G2][g2G2] [a2A2][g2G2] | [g2G2][g2G2] d2d2 |\
[g2G2][g2G2] [a2A2][g2G2] | [c'2e2][b2d2] [a2d2][a2d2] |
[g2G2][g2G2] [a2A2][g2G2] | [g2G2][g2G2] [d2D2][d'2d2] |\
b3^g a2d2 | [c'2d2][b2d2] [a2d2][ad] |]


